svg/fluentui-system-icons/ic_fluent_app_generic_20_filled.svg

<svg width="20" height="20" viewBox="0 0 20 20" fill="none" xmlns="http://www.w3.org/2000/svg">
<path d="M5.5 3C4.11929 3 3 4.11929 3 5.5V14.5C3 15.8807 4.11929 17 5.5 17H14.5C15.8807 17 17 15.8807 17 14.5V5.5C17 4.11929 15.8807 3 14.5 3H5.5ZM4 7H16V14.5C16 15.3284 15.3284 16 14.5 16H5.5C4.67157 16 4 15.3284 4 14.5V7ZM6 8C5.44772 8 5 8.44771 5 9V14C5 14.5523 5.44772 15 6 15H8C8.55228 15 9 14.5523 9 14V9C9 8.44772 8.55228 8 8 8H6ZM6 9H8V14H6V9ZM10.5 10C10.2239 10 10 10.2239 10 10.5C10 10.7761 10.2239 11 10.5 11H13.5C13.7761 11 14 10.7761 14 10.5C14 10.2239 13.7761 10 13.5 10H10.5ZM10 8.5C10 8.22386 10.2239 8 10.5 8H14.5C14.7761 8 15 8.22386 15 8.5C15 8.77614 14.7761 9 14.5 9H10.5C10.2239 9 10 8.77614 10 8.5Z" fill="#212121"/>
</svg>

<svg xmlns="http://www.w3.org/2000/svg" width="20" height="20"><path d="M5.5 3A2.5 2.5 0 0 0 3 5.5v9A2.5 2.5 0 0 0 5.5 17h9a2.5 2.5 0 0 0 2.5-2.5v-9A2.5 2.5 0 0 0 14.5 3h-9ZM4 7h12v7.5a1.5 1.5 0 0 1-1.5 1.5h-9A1.5 1.5 0 0 1 4 14.5V7Zm2 1a1 1 0 0 0-1 1v5a1 1 0 0 0 1 1h2a1 1 0 0 0 1-1V9a1 1 0 0 0-1-1H6Zm0 1h2v5H6V9Zm4.5 1a.5.5 0 0 0 0 1h3a.5.5 0 0 0 0-1h-3ZM10 8.5a.5.5 0 0 1 .5-.5h4a.5.5 0 0 1 0 1h-4a.5.5 0 0 1-.5-.5Z"/></svg>
